X:358
T:Mr. Michie 
C:Joe Buchanan's Scottish Tome - Page 019.0
I:019 0
C:A. Fitchet
R:March
Z:Carl Allison
L:1/16
M:4/4
K:F
C4 | {E}F4 A2F2 c2A2 f2>d2 | c2A2 BAGF E2G2 G2A2 |
| {E}F4 C2F2 B,2D2 G,2d2 | c2A2 BGEc A2F2 F2C2 :|
| f2>f2 a2f2 c2f2 A2f2 | c2F2 dcBA B2G2 G2c2 |
| f2>g2 a2f2 c2f2 A2c2 | B2G2 cdcB A2F2 F2c2 |
| a2>f2 c2A2 f2>d2 c2A2 | c2F2 dcBA B2G2 G2A2 |
| {E}F4 C2F2 B,2D2 G,2d2 | c2A2 BGEc F2D2 D2C2 |]
| FEFG ABAB cdcA f2d2 | cdcA fcAF E2G2 G2A2 |
| FEFD CFEF B,D^CD G,2d2 | c2A2 BGEc A2F2 F2C2 |]
| fcAc afcA FAcF FBdf | cdcA fcAF E2G2 G2c2 |
| fcAc afcA FAcF FBdf | cdcA BGEc A2F2 F2c2 |
| afcA FAcf fdBF DFBd | cdcA fcAF E2G2 G2A2 |
| {E}F4 C2F2 B,2F2 G,2d2 | c2A2 BGEc A2F2 F4 |]

